X: 191
T:Mallorca
% Nottingham Music Database
S:Duke of Windsor, via EF
M:6/8
K:G
d/2c/2|"G"BAB GBd|"C"ece gfe|"G"ded "Em"BGB|"Am"dcB "D7"A2d/2c/2|
"G"BAB GBd|"C"ece gfe|"G"d/2g3/2B "D7"dcA|"G"G3 -G2:|
c|"G"deg "C"gfe|"G"dcB "D7"B2A|"G"Bde dBd|"Em"dcB "D7"A2d/2c/2|
"G"BAB GBd|"C"ece gfe|"G"d/2g3/2B "D7"dcA|"G"G3 -G2:|<end>
<start>
